/* XPM */
static const char *vclass_small_custom1_xpm[] = {
/* columns rows colors chars-per-pixel */
"16 16 5 1",
"  c None",
". c #190823",
"X c #BE2DDC",
"o c #5A1478",
"O c #7800AA",
/* pixels */
"                ",
"                ",
" ......   ......",
" ...............",
"    .........   ",
"   XXXXXXX      ",
"   XXXXXooXXX   ",
"  XXoooooXXXX   ",
"  XXooooXXXXXX  ",
"   XooooXXXXX   ",
"   XXXXXXXXX    ",
"     XXXO       ",
"    ....O.....  ",
"    ...OOOO...  ",
"       OOO      ",
"      OOO       "
};
