/* XPM */
static const char *vclass_custom1_xpm[] = {
/* columns rows colors chars-per-pixel */
"64 32 6 1",
"  c None",
". c #230A2D",
"X c #BE2DDC",
"o c #5A1478",
"O c #EBCDF5",
"+ c #7800AA",
/* pixels */
"                                                                ",
"                                                                ",
"       .................                 .................      ",
"    .....................               .....................   ",
"    .....................               .....................   ",
"       ...................................................      ",
"            .........................................           ",
"            .........................................           ",
"             .......................................            ",
"                  ....                     ....                 ",
"             XXXXXXXXXXXXXXXXXXXXXX         ..                  ",
"            XXXXXXXXXXXXXXXXXXXXXXXXXXXXXXXX                    ",
"           XXXXXXXXXXXXXXXXXXXXXXXXXXXXXXXXXXX                  ",
"           XXXXXoooooooooooOOOOOOOOOOXXXXXXXXXXX                ",
"           XXXXoooooooooooooooOOOOOOOOOOXXXXXXXXXX              ",
"          XXXXXooooooooooooooooooOOOOOOXXXXXXXXXXX              ",
"          XXXXooooooooooooooooooOOOOOXXXXXXXXXXXXXX             ",
"           XXooooooooooooooooooOOOOOXXXXXXXXXXXXXXX             ",
"           XXXXooooooooooooooooOOOOXXXXXXXXXXXXXXXX             ",
"            XXXXooooooooooooooOOOXXXXXXXXXXXXXXXXX              ",
"              XXXXoooooooooooOOOXXXXXXXXXXXXXXXXXX              ",
"               XXXXXXXXXXXXXXXXXXXXXXXXXXXXXXXXXX               ",
"                 XXXXXXXXXXXXXXXXXXXXXXXXXXXXXXXX               ",
"                  XXXXXXXXXXXXXXXXXXXXXXXXXXX                   ",
"                    ...XXXXXXXX+XXXXX...XX                      ",
"             ............   X ++  .............                 ",
"            ..............    ++ ...............                ",
"             ............    ++++ .............                 ",
"                             ++++++++                           ",
"                            ++++++++                            ",
"                            +++++++                             ",
"                           ++++++++                             "
};
